src/static/logos/hasura.svg

<?xml version="1.0" encoding="UTF-8"?>
<svg width="256px" height="305px" viewBox="0 0 256 305" version="1.1" xmlns="http://www.w3.org/2000/svg" xmlns:xlink="http://www.w3.org/1999/xlink" preserveAspectRatio="xMidYMid">
	<g>
		<ellipse fill="#FFC627" cx="128" cy="180.374331" rx="103.632079" ry="103.632079"></ellipse>
		<path d="M169.254517,211.536972 L130.493847,135.916085 C127.078833,129.25378 118.894399,126.61307 112.213177,130.030607 C105.549611,133.45445 102.908902,141.636361 106.323916,148.301189 L122.508665,179.854765 L93.5403104,208.74241 C88.2248424,214.045267 88.2248424,222.638292 93.5113055,227.951238 C96.1658868,230.604558 99.6426947,231.940046 103.119503,231.940046 C106.59631,231.940046 110.059246,230.604558 112.711305,227.975198 L135.504133,205.232814 L145.08837,223.923336 C147.497039,228.61709 152.236192,231.315809 157.187207,231.315809 C159.262951,231.315809 161.376527,230.832814 163.363995,229.816381 C170.031345,226.400105 172.670793,218.218193 169.254517,211.536972" fill="#232323"></path>
		<path d="M221.389588,0.926811603 C213.660497,5.83632268 226.714101,50.6129875 195.737781,77.0236005 C176.189903,64.3454431 152.891649,56.9134635 127.843219,56.9134635 C102.871328,56.9134635 79.6355798,64.3175985 60.1170413,76.9109564 C29.3256888,50.4965464 42.3180629,5.83632268 34.6221382,0.926811603 C22.0009749,-7.12281213 -1.72589377,39.1131634 0.0995443512,68.4828991 C1.08306133,84.1872594 5.2607761,107.195767 16.6713589,125.021381 C8.16412841,141.745866 3.26567811,160.553635 3.26567811,180.51822 C3.26567811,248.691952 59.1475563,304.158416 127.844495,304.158416 C196.555465,304.158416 252.424587,248.694483 252.424587,180.51822 C252.424587,160.671341 247.569509,141.958498 239.156675,125.317546 C250.705027,107.44004 254.914633,84.2669962 255.899425,68.4828991 C257.735069,39.1131634 233.994168,-7.12407779 221.389588,0.926811603 M127.843219,276.88462 C74.3085151,276.88462 30.7237882,233.67105 30.7237882,180.516955 C30.7237882,127.388172 74.3085151,84.1568834 127.843219,84.1568834 C181.409814,84.1568834 224.967753,127.388172 224.967753,180.516955 C224.967753,233.673582 181.409814,276.88462 127.843219,276.88462" fill="#232323"></path>
	</g>
</svg>

<svg width="256" height="305" xmlns="http://www.w3.org/2000/svg" preserveAspectRatio="xMidYMid"><circle fill="#FFC627" cx="128" cy="180.374" r="103.632"/><path d="M169.255 211.537l-38.761-75.62c-3.415-6.663-11.6-9.304-18.28-5.886-6.664 3.423-9.305 11.605-5.89 18.27l16.185 31.554-28.969 28.887c-5.315 5.303-5.315 13.896-.029 19.21a13.558 13.558 0 009.609 3.988c3.476 0 6.94-1.335 9.591-3.965l22.793-22.742 9.584 18.69a13.568 13.568 0 0018.276 5.893c6.667-3.416 9.307-11.598 5.89-18.279" fill="#232323"/><path d="M221.39.927c-7.73 4.91 5.324 49.686-25.652 76.097-19.548-12.679-42.846-20.11-67.895-20.11-24.972 0-48.207 7.404-67.726 19.997C29.326 50.497 42.318 5.836 34.622.927 22.001-7.123-1.726 39.113.1 68.483c.983 15.704 5.16 38.713 16.571 56.538-8.507 16.725-13.405 35.533-13.405 55.497 0 68.174 55.882 123.64 124.578 123.64 68.711 0 124.58-55.464 124.58-123.64 0-19.847-4.854-38.56-13.267-55.2 11.548-17.878 15.758-41.051 16.742-56.835 1.836-29.37-21.905-75.607-34.51-67.556m-93.546 275.958c-53.534 0-97.12-43.214-97.12-96.368 0-53.129 43.586-96.36 97.12-96.36 53.567 0 97.125 43.231 97.125 96.36 0 53.157-43.558 96.368-97.125 96.368" fill="#232323"/></svg>
